Simply white circles/scalable/apps/gnomebaker.svg

<svg xmlns="http://www.w3.org/2000/svg" width="48" height="48" viewBox="0 0 12.7 12.7">
  <path fill="#e6e6e6" d="M6.1903196.03514c-3.4122692.081-6.132442 2.8487-6.132442 6.28127 0 3.484 2.8014027 6.2854 6.2854043 6.2854 2.0361825 0 3.8346741-.96074 4.9816081-2.45153L8.0992471 7.80831c.00545-.006.00914-.0127.01447-.0186-.4183362.50436-1.0501331.8263-1.7704348.8263-1.3163663 0-2.2996011-1.05945-2.2996011-2.2996 0-1.24489.903723-2.26362 2.234489-2.2965l-.08785-.003c0-1.32723.0000325-2.65443 0-3.98167zm.1131716 4.61626a1.6543405 1.6668259 0 0 0-1.6546795 1.66656 1.6543405 1.6668259 0 0 0 1.6546795 1.66657A1.6543405 1.6668259 0 0 0 7.957137 6.31796 1.6543405 1.6668259 0 0 0 6.3034912 4.6514zm.011369.66094A1.0268037 1.0345531 0 0 1 7.3411541 6.3469a1.0268037 1.0345531 0 0 1-1.0262939 1.03404A1.0268037 1.0345531 0 0 1 5.2875327 6.3469a1.0268037 1.0345531 0 0 1 1.0273275-1.03456z"/>
  <path fill="#d4ff2a" d="M6.1901823.03086c.000033 1.32862 0 2.65728 0 3.98592 1.358156-.0331 2.677282 1.24817 2.427211 2.64048-.07802.45366-.227213.83459-.517801 1.15074l3.2258367 2.3425c1.376124-1.71393 1.685799-4.21619.825699-6.24932C11.411493 2.11341 9.8120973.65389 7.8960023.25743c-.560788-.11886-1.129671-.24249-1.705913-.22637z" opacity=".75"/>
</svg>

<svg xmlns="http://www.w3.org/2000/svg" width="48" height="48" viewBox="0 0 12.7 12.7"><path fill="#e6e6e6" d="M6.19.035A6.267 6.267 0 0 0 .058 6.316a6.27 6.27 0 0 0 6.285 6.286c2.036 0 3.835-.96 4.982-2.452L8.099 7.808l.015-.018a2.285 2.285 0 0 1-1.77.826c-1.317 0-2.3-1.06-2.3-2.3 0-1.244.903-2.263 2.234-2.296l-.088-.003V.035zm.113 4.616A1.654 1.667 0 0 0 4.65 6.318a1.654 1.667 0 0 0 1.654 1.667 1.654 1.667 0 0 0 1.654-1.667 1.654 1.667 0 0 0-1.654-1.667zm.012.661A1.027 1.035 0 0 1 7.34 6.347 1.027 1.035 0 0 1 6.315 7.38a1.027 1.035 0 0 1-1.027-1.034 1.027 1.035 0 0 1 1.027-1.035z"/><path fill="#d4ff2a" d="M6.19.03v3.987c1.358-.033 2.677 1.248 2.427 2.64-.078.454-.227.835-.517 1.151l3.225 2.342c1.377-1.713 1.686-4.216.826-6.249C11.411 2.113 9.812.654 7.896.257 7.336.14 6.766.015 6.19.031z" opacity=".75"/></svg>
